public/Brands/HENGST FILTER.svg

<svg class="a-svg o-header__logo"data-controller=""        viewBox='0 0 156 60' width='156' height='60' aria-hidden='true'><g class="g-1" clip-path='url(#clip0_1236_254)' fill='currentColor'/><path class="path-2" d='M0 11.1199H3.54962V36.7186H0V45.5057H12.5628L12.5689 29.3415H23.7161V45.5057H36.285V36.7186H32.7385V11.1199H36.285V2.33594H23.7192L23.7161 18.5001H12.5689V2.33594H0V11.1199Z' fill='currentColor'/><path class="path-3" d='M88.41 14.1412V36.705H82.7722V16.8648C82.7722 16.5981 82.6682 16.3424 82.483 16.1539C82.2978 15.9653 82.0466 15.8594 81.7847 15.8594H72.3527V36.7143H66.7148V11.125H85.4444C85.8337 11.1246 86.2193 11.2023 86.5791 11.3537C86.9389 11.5051 87.2658 11.7272 87.5412 12.0073C87.8167 12.2874 88.0352 12.6201 88.1842 12.9862C88.3333 13.3524 88.41 13.7448 88.41 14.1412V14.1412Z' fill='currentColor'/><path class="path-4" d='M40.3711 14.1412V33.6857C40.3707 34.082 40.447 34.4746 40.5957 34.8409C40.7444 35.2072 40.9626 35.5401 41.2377 35.8205C41.5129 36.1009 41.8396 36.3233 42.1993 36.4751C42.5589 36.6269 42.9444 36.705 43.3337 36.705H62.0663V31.9706H46.9964C46.8666 31.971 46.7381 31.9453 46.6181 31.8949C46.4981 31.8445 46.389 31.7705 46.2973 31.6771C46.2055 31.5836 46.1327 31.4726 46.0833 31.3504C46.0338 31.2283 46.0085 31.0974 46.0089 30.9652V26.3491H62.0663V14.1412C62.0663 13.7448 61.9896 13.3524 61.8405 12.9862C61.6914 12.6201 61.4729 12.2874 61.1975 12.0073C60.9221 11.7272 60.5951 11.5051 60.2353 11.3537C59.8755 11.2023 59.4899 11.1246 59.1006 11.125H43.3337C42.548 11.125 41.7944 11.4428 41.2388 12.0084C40.6832 12.5741 40.3711 13.3412 40.3711 14.1412ZM56.4224 21.6116H46.0089V16.8648C46.0085 16.7326 46.0338 16.6017 46.0833 16.4795C46.1327 16.3574 46.2055 16.2464 46.2973 16.1529C46.389 16.0595 46.4981 15.9855 46.6181 15.9351C46.7381 15.8847 46.8666 15.859 46.9964 15.8594H55.4257C55.5555 15.859 55.6841 15.8847 55.8041 15.9351C55.924 15.9855 56.0331 16.0595 56.1249 16.1529C56.2166 16.2464 56.2894 16.3574 56.3388 16.4795C56.3883 16.6017 56.4136 16.7326 56.4132 16.8648V21.6178L56.4224 21.6116Z' fill='currentColor'/><path class="path-5" d='M155.998 2.33451V7.06889H151.366V36.7016H145.732V7.06889H40.3711V2.33451H145.732V0H151.366V2.33451H155.998Z' fill='currentColor'/><path class="path-6" d='M125.005 16.8648V20.6C125.005 20.8666 125.109 21.1224 125.294 21.3109C125.479 21.4995 125.731 21.6054 125.993 21.6054H138.097C138.486 21.605 138.872 21.6827 139.231 21.8341C139.591 21.9855 139.918 22.2076 140.194 22.4877C140.469 22.7678 140.688 23.1005 140.837 23.4666C140.986 23.8328 141.062 24.2252 141.062 24.6216V33.6764C141.062 34.4771 140.75 35.2451 140.194 35.8113C139.638 36.3776 138.883 36.6957 138.097 36.6957H119.367V31.9706H134.437C134.699 31.9706 134.95 31.8647 135.135 31.6761C135.321 31.4876 135.425 31.2319 135.425 30.9652V27.3545C135.425 27.0879 135.321 26.8321 135.135 26.6436C134.95 26.455 134.699 26.3491 134.437 26.3491H122.33C121.94 26.3491 121.555 26.271 121.195 26.1192C120.836 25.9675 120.509 25.745 120.234 25.4646C119.959 25.1842 119.741 24.8513 119.592 24.485C119.443 24.1187 119.367 23.7262 119.367 23.3298V14.1412C119.367 13.3412 119.679 12.5741 120.235 12.0084C120.791 11.4428 121.544 11.125 122.33 11.125H141.062V15.8594H125.993C125.863 15.859 125.734 15.8847 125.614 15.9351C125.494 15.9855 125.385 16.0595 125.293 16.1529C125.202 16.2464 125.129 16.3574 125.079 16.4795C125.03 16.6017 125.005 16.7326 125.005 16.8648V16.8648Z' fill='currentColor'/><path class="path-7" d='M96.0247 11.125C95.6354 11.125 95.2499 11.2031 94.8902 11.3549C94.5306 11.5067 94.2039 11.7291 93.9287 12.0095C93.6536 12.2899 93.4354 12.6228 93.2867 12.9891C93.138 13.3554 93.0617 13.7479 93.0621 14.1443V33.6888C93.0617 34.085 93.138 34.4774 93.2868 34.8435C93.4355 35.2097 93.6537 35.5423 93.9289 35.8225C94.2041 36.1026 94.5308 36.3248 94.8905 36.4762C95.2501 36.6277 95.6355 36.7054 96.0247 36.705H109.083V39.771C109.083 40.0368 108.979 40.2917 108.794 40.4797C108.61 40.6677 108.359 40.7733 108.098 40.7733H40.3711V45.5077H111.758C112.147 45.5081 112.533 45.4303 112.893 45.279C113.252 45.1276 113.579 44.9055 113.855 44.6253C114.13 44.3452 114.349 44.0126 114.498 43.6464C114.647 43.2803 114.724 42.8878 114.724 42.4915V11.125H96.0247ZM109.083 31.9799H99.6844C99.423 31.9799 99.1723 31.8745 98.9871 31.6866C98.802 31.4987 98.6976 31.2438 98.6968 30.9777V16.8648C98.6968 16.5981 98.8009 16.3424 98.9861 16.1539C99.1713 15.9653 99.4225 15.8594 99.6844 15.8594H108.098C108.36 15.8602 108.61 15.9665 108.795 16.155C108.979 16.3434 109.083 16.5987 109.083 16.8648V31.9799Z' fill='currentColor'/><path class="path-8" d='M77.7689 52.6341V54.2714H81.1718V56.3164H77.7689V59.924H75.5156V50.5859H81.7496V52.6341H77.7689Z' fill='currentColor'/><path class="path-9" d='M84.1523 50.5859H86.4087V59.924H84.1523V50.5859Z' fill='currentColor'/><path class="path-10" d='M89.5312 59.924V50.5859H91.7845V57.8789H95.6368V59.924H89.5312Z' fill='currentColor'/><path class="path-11" d='M100.577 52.6341V59.924H98.3236V52.6341H96.0703V50.5859H102.833V52.6341H100.577Z' fill='currentColor'/><path class="path-12" d='M107.989 52.6465H106.714V54.5328H107.989C108.235 54.5328 108.47 54.4335 108.644 54.2566C108.818 54.0797 108.916 53.8398 108.916 53.5897C108.916 53.3395 108.818 53.0996 108.644 52.9228C108.47 52.7459 108.235 52.6465 107.989 52.6465ZM109.096 59.924L107.472 56.4471H106.714V59.924H104.461V50.5859H108.09C110.126 50.5859 111.221 52.0551 111.221 53.5897C111.225 54.0986 111.087 54.5983 110.823 55.0304C110.559 55.4625 110.179 55.8092 109.729 56.03L111.713 59.924H109.096Z' fill='currentColor'/><path class="path-13" d='M116.821 54.1282L115.999 56.6183H117.595L116.821 54.1282V54.1282ZM118.613 59.924L118.188 58.5326H115.354L114.904 59.924H112.547L115.882 50.5859H117.622L120.958 59.924H118.613Z' fill='currentColor'/><path class="path-14" d='M125.913 52.6341V59.924H123.66V52.6341H121.406V50.5859H128.169V52.6341H125.913Z' fill='currentColor'/><path class="path-15" d='M130.43 50.5859H132.683V59.924H130.43V50.5859Z' fill='currentColor'/><path class="path-16" d='M139.461 52.9562C139.346 52.8293 139.207 52.728 139.052 52.6587C138.897 52.5894 138.73 52.5537 138.56 52.5537C138.391 52.5537 138.224 52.5894 138.069 52.6587C137.914 52.728 137.774 52.8293 137.66 52.9562C137.452 53.2332 137.324 53.5476 137.324 55.2533C137.324 56.9591 137.452 57.2579 137.66 57.5349C137.772 57.6666 137.91 57.7723 138.065 57.8448C138.221 57.9172 138.389 57.9547 138.56 57.9547C138.731 57.9547 138.9 57.9172 139.055 57.8448C139.211 57.7723 139.349 57.6666 139.461 57.5349C139.666 57.2579 139.797 56.9591 139.797 55.2533C139.797 53.5476 139.666 53.2332 139.461 52.9562ZM141.109 58.9761C140.417 59.6339 139.505 59.9997 138.559 59.9997C137.612 59.9997 136.701 59.6339 136.009 58.9761C135.07 58.0205 135.07 56.8284 135.07 55.2409C135.07 53.6534 135.07 52.4737 136.009 51.5057C136.701 50.8493 137.613 50.4844 138.559 50.4844C139.505 50.4844 140.416 50.8493 141.109 51.5057C142.05 52.4644 142.05 53.6596 142.05 55.2409C142.05 56.8221 142.05 58.0081 141.109 58.9761Z' fill='currentColor'/><path class="path-17" d='M149.426 59.924L146.488 55.2301V59.924H144.234V50.5859H146.206L149.141 55.2799V50.5859H151.395V59.924H149.426Z' fill='currentColor'/></g></defs></svg>

<svg xmlns="http://www.w3.org/2000/svg" width="156" height="60" aria-hidden="true" viewBox="0 0 156 60"><path fill="#1f2937" d="M0 11.12h3.55v25.599H0v8.787h12.563l.006-16.164h11.147v16.164h12.569v-8.787h-3.546v-25.6h3.546V2.337H23.719L23.716 18.5H12.57V2.336H0z" class="path-2"/><path fill="#1f2937" d="M88.41 14.141v22.564h-5.638v-19.84c0-.267-.104-.523-.289-.711a.98.98 0 0 0-.698-.295h-9.432v20.855h-5.638V11.125h18.73c.389 0 .774.077 1.134.229.36.151.687.373.962.653a3.063 3.063 0 0 1 .869 2.134" class="path-3"/><path fill="#1f2937" d="M40.371 14.141v19.545c0 .396.076.789.225 1.155.148.366.367.7.642.98s.602.502.961.654c.36.152.745.23 1.135.23h18.732v-4.734h-15.07a.97.97 0 0 1-.699-.294 1 1 0 0 1-.288-.712V26.35h16.057V14.141c0-.396-.076-.789-.226-1.155a3 3 0 0 0-.643-.979 3 3 0 0 0-.962-.653 2.9 2.9 0 0 0-1.134-.229H43.334c-.786 0-1.54.318-2.095.883a3.04 3.04 0 0 0-.868 2.133m16.051 7.47H46.01v-4.746a1.02 1.02 0 0 1 .288-.712.98.98 0 0 1 .7-.294h8.429a.97.97 0 0 1 .699.294 1 1 0 0 1 .288.712v4.753z" class="path-4"/><path fill="#1f2937" d="M155.998 2.335v4.734h-4.632v29.633h-5.634V7.069H40.372V2.335h105.36V0h5.634v2.335z" class="path-5"/><path fill="#1f2937" d="M125.005 16.865V20.6c0 .267.104.522.289.71a.98.98 0 0 0 .699.295h12.104c.389 0 .775.078 1.134.23.36.15.687.373.963.653a3.03 3.03 0 0 1 .868 2.134v9.054c0 .801-.312 1.57-.868 2.135a2.94 2.94 0 0 1-2.097.885h-18.73V31.97h15.07a.98.98 0 0 0 .698-.295c.186-.188.29-.444.29-.71v-3.611c0-.267-.104-.523-.29-.711a.98.98 0 0 0-.698-.295H122.33c-.39 0-.775-.078-1.135-.23a3 3 0 0 1-.961-.654 3 3 0 0 1-.642-.98 3.1 3.1 0 0 1-.225-1.155V14.14c0-.8.312-1.567.868-2.133a2.94 2.94 0 0 1 2.095-.883h18.732v4.734h-15.069a.97.97 0 0 0-.7.294 1 1 0 0 0-.214.327 1 1 0 0 0-.074.385" class="path-6"/><path fill="#1f2937" d="M96.025 11.125c-.39 0-.775.078-1.135.23s-.686.374-.961.654-.494.614-.642.98a3.1 3.1 0 0 0-.225 1.155V33.69c0 .396.076.788.225 1.154.148.367.367.7.642.98s.602.502.962.653.744.23 1.134.229h13.058v3.066c0 .266-.104.52-.289.709a.97.97 0 0 1-.696.293H40.371v4.735h71.387a2.92 2.92 0 0 0 2.097-.883c.275-.28.494-.612.643-.979.149-.366.226-.758.226-1.154V11.125zm13.058 20.855h-9.399a.98.98 0 0 1-.697-.293 1.01 1.01 0 0 1-.29-.71V16.866c0-.267.104-.523.29-.711a.98.98 0 0 1 .697-.295h8.414a.98.98 0 0 1 .697.296c.184.188.288.444.288.71z" class="path-7"/><path fill="#1f2937" d="M77.769 52.634v1.637h3.403v2.045h-3.403v3.608h-2.253v-9.338h6.234v2.048z" class="path-8"/><path fill="#1f2937" d="M84.152 50.586h2.257v9.338h-2.257z" class="path-9"/><path fill="#1f2937" d="M89.531 59.924v-9.338h2.253v7.293h3.853v2.045z" class="path-10"/><path fill="#1f2937" d="M100.577 52.634v7.29h-2.253v-7.29H96.07v-2.048h6.763v2.048z" class="path-11"/><path fill="#1f2937" d="M107.989 52.647h-1.275v1.886h1.275c.246 0 .481-.1.655-.276a.95.95 0 0 0 0-1.334.92.92 0 0 0-.655-.276m1.107 7.277-1.624-3.477h-.758v3.477h-2.253v-9.338h3.629c2.036 0 3.131 1.47 3.131 3.004a2.7 2.7 0 0 1-.398 1.44 2.65 2.65 0 0 1-1.094 1l1.984 3.894z" class="path-12"/><path fill="#1f2937" d="m116.821 54.128-.822 2.49h1.596zm1.792 5.796-.425-1.391h-2.834l-.45 1.391h-2.357l3.335-9.338h1.74l3.336 9.338z" class="path-13"/><path fill="#1f2937" d="M125.913 52.634v7.29h-2.253v-7.29h-2.254v-2.048h6.763v2.048z" class="path-14"/><path fill="#1f2937" d="M130.43 50.586h2.253v9.338h-2.253z" class="path-15"/><path fill="#1f2937" d="M139.461 52.956a1.203 1.203 0 0 0-1.801 0c-.208.277-.336.592-.336 2.297s.128 2.005.336 2.282a1.173 1.173 0 0 0 1.801 0c.205-.277.336-.576.336-2.282s-.131-2.02-.336-2.297m1.648 6.02a3.7 3.7 0 0 1-2.55 1.024 3.7 3.7 0 0 1-2.55-1.024c-.939-.956-.939-2.148-.939-3.735 0-1.588 0-2.767.939-3.735a3.7 3.7 0 0 1 2.55-1.022c.946 0 1.857.365 2.55 1.022.941.958.941 2.154.941 3.735s0 2.767-.941 3.735" class="path-16"/><path fill="#1f2937" d="m149.426 59.924-2.938-4.694v4.694h-2.254v-9.338h1.972l2.935 4.694v-4.694h2.254v9.338z" class="path-17"/></svg>
